X: 103
T:Reel St Sauveur
R:reel
S:from Nathan Curry manuscript
Z:added by Alf 
Z:The third part really has nine bars in it
M:4/4
L:1/8
K:D
|A2FA ABcd|A2FA ABcd|F2DF FEDE|FDEF E2DF|
A2FA ABcd|A2FA ABcd|efed cABc|[1 dfec d2FG:|[2 dfec dABc
|:d2fd adfd|adfd cABc|d2fd adfd|adfd cABc:|
fgfe dedB|ABAG FAGF|EADA EADA|cABc BAAd|
fffe dddB|AAAG FAGF|EecB AAcA|eAcA eABc|[1 dfec ddAd:|[2dfec d2DF|
